X: 18
T: The Holly Bush
T: Three Little Drummers
R: jig
M: 6/8
L: 1/8
K: Gmaj
   "G" BAG GDG     | GDG "D" ABc     | "G" BAG "C" edc | "G" BdB "C" cBA  |
   "G" BAG GDG     | GDG "D" ABc     | "G" BAG "C" edB |1 "D" def "G" g3 :|2 "D" def "G" g3 d ||
|: "G" gdd gdd     | gdd "Bm" dcB    | "Am" ABc ABc    | ABc "D" cBA      |
   "G" BAB "D" cdc | "G" BAG "C" Adc | "G" BAG "C" edB | "D" def "G" g3  :|

